X: 4387
M: 3/4
L: 1/4
K: G
(G,B,D) | Dzd | dzB | BzG, | (G,B,D) | Dzd | dzc | czF  |\
(FAc) | cze | ezc | czF  | (FAc)   | cze | ezB | BzG, |
(G,B,D) | Gzg | gzd | dzG, | (G,B,D) | Gzg | gze | ezA  |\
(Ace) | e3- | e^cd | b3- | bgB | (B2A) | e2d | Gz/G/G |\
z H|]
|: gf |\
fee | ze^d | ^dee | zAA | (B2A) | zAA | (e2d) | zgf |\
fee | zef | agg | z^ce | (e2d) | (^c>BG/E/) | B/B/BA |[1 D :|[2 D"_D.C."zz |]
[K:D] A |\
[K:=f=c][K:Gm] |: d |\
d3- | ded | cBA | G3 | czc | cG>F | Fdf | edc |\
d3- | ded | cBA | G3 | ^FzF | zGB |[1 Add | ddd :|[2 AAA | A"_D.C."A |]


